icons/svg/sort-ascending.svg

﻿<?xml version="1.0" encoding="utf-8"?>
<!DOCTYPE svg PUBLIC "-//W3C//DTD SVG 1.1//EN" "http://www.w3.org/Graphics/SVG/1.1/DTD/svg11.dtd">
<svg xmlns="http://www.w3.org/2000/svg" xmlns:xlink="http://www.w3.org/1999/xlink" version="1.1" baseProfile="full" width="24" height="24" viewBox="0 0 24.00 24.00" enable-background="new 0 0 24.00 24.00" xml:space="preserve">
	<path fill="#000000" fill-opacity="1" stroke-width="0.2" stroke-linejoin="round" d="M 10,11.0019L 10,13.0019L 18.0006,13L 18.0006,11L 10,11.0019 Z M 10,5.00195L 10,7.00195L 14.0006,7L 14.0006,5L 10,5.00195 Z M 10.0006,17L 10,19.0019L 22,19.0019L 22.0006,17L 10.0006,17 Z M 6.00001,7.00196L 8.50001,7.00196L 5.00001,3.50196L 1.50001,7.00196L 4.00001,7.00196L 4.00061,20L 6.0006,20L 6.00001,7.00196 Z "/>
</svg>

<svg xmlns="http://www.w3.org/2000/svg" version="1.1" baseProfile="full" width="24" height="24" viewBox="0 0 24.00 24.00" xml:space="preserve"><path fill="#000" fill-opacity="1" stroke-width=".2" stroke-linejoin="round" d="M10 11.002v2L18 13v-2l-8 .002zm0-6v2L14 7V5l-4 .002zM10 17v2.002h12V17H10zM6 7.002h2.5L5 3.502l-3.5 3.5H4V20h2V7.002z"/></svg>
